X: 3
T: la Bagatelle.
%R: jig
Z: 2015 John Chambers <jc:trillian.mit.edu>
S: http://books.google.com/books?id=ipV0y26Vq8EC
B: Giovanni Andrea Gallini  "A New Collection of Forty-Four Cotillions" c.1755 #3
M: 6/8
L: 1/8
K: G
% - - - - - - - - - - - - - - - - - - - - - - - - - - - - -
% Voice 1 staff breaks arranged to fit a wider page:
V: 1
|:\
[B2D2G,2]B BcA | d2d def | gdc BAG | A2D DED |\
[B2D2G,2]B BcA | d2d def | gdc BcA | G2G G3 :|
|:\
AG/F/E/D/ dAc | Bgf edc | B/c/dc BAG | F/G/AD D3 |\
AG/F/E/D/ dAc | Bgf edc | BcB ABA | G2G G3 :|
% - - - - - - - - - - - - - - - - - - - - - - - - - - - - -
% Voice 2 preserves the original staff layout:
V: 2 clef=bass middle=d
|:\
g3 d3 | B3 G2A | B3 e3 | d3 d3 |
g3 d3 | B3 g2a | b2c' d'2d | g3 G3 :|
|:\
d3 f3 | g3 z2z | G2A B2^c | d3 d3 |
f3 f3 | g3 c'3 | d'3 d3 | g3 G3 :|
% - - - - - - - - - - Dance description - - - - - - - - - -
%%sep 1 1 400
%%center La Bagatelle.
%%begintext align
%%   Le Grand Rond - - - 2/1
%%endtext
%%begintext align
%%   The first and third Couple step Forward,
%% go Round Back to Back, then to their places
%% Allemande; while the Second and Fourth Couple
%% Allemande, then Back to Back into their
%% places - - - - - - 1/2
%%endtext
%%begintext align
%%   All Eight Chasse up and down and
%% Rigaudon - - - - 1/2
%%endtext
%%sep 1 1 400
